;FLAVOR:Marlin
;TIME:10966.8
;Filament used:9.57751m
;Layer height: 0.15
;MINX:60.279
;MINY:75.773
;MINZ:0.24
;MAXX:159.707
;MAXY:144.221
;MAXZ:23.84
                                  
;Creality Print GCode Generated by CXEngine
;CRSLICE_GIT_HASH:3ff0ab3
;Creality Print Version : V4.3.5.5791
;CXEngine Release Time:2023-06-13 21:35:22
;Gcode Generated Time:2023-07-24 12:31:01
;----------Machine Config--------------
;Machine Name:Creality Ender-3
;Machine Height:250
;Machine Width:220
;Machine Depth:220
;Material name:Ender-PLA_1.75
;Number of Extruders:1
;ExtruderParams[0] Nozzle Diameter:1000
;----------Profile Config---------------
;Layer Height:0.15
;Wall Thickness:1.2
;Top/Bottom Thickness:0.84
;Out Wall Line Width:0.4
;Inner Wall Line Width:0.4
;Inital Layer Height:150
;Wall Line Count:3
;Infill Line Distance:8
;Infill Pattern:grid
;Infill Sparse Density:10
;Infill Wipe Distance:0
;Print Temperature:200
;Bed Temperature:60
;Support Enable:false
;Support Density:20
;Support Angle:51
;Adhesion Type:simpleraft
;machine is belt:false
;machine belt offset:10
;machine belt offset Y:0
;Raft Base Line Spacing:1.6
;Wait Heatup Sync:true
;Enable Ironing:false
;Material Type:PLA
;Max volumetric speed:10
;----------Shell Config----------------
;Outer Wall Wipe Distance:200
;Outer Inset First:false
;Infill Before Walls:false
;Infill Overlap:0.16
;Fill Gaps Between Walls:everywhere
;Minimum Infill Area:15
;Top Surface Skin Layer:0
;Top Layers:6
;Z Seam Alignment:sharpest_corner
;Seam Corner Preference:z_seam_corner_weighted
;Z Seam X:110
;Z Seam Y:220
;Horizontal Expansion:0
;Top/Bottom Pattern:zigzag
;Ironing Pattern:zigzag
;Vase Model:false
;----------Support Config----------------
;Support Type:everywhere
;Support Pattern:zigzag
;Support Infill Layer Thickness:0.15
;Minimum Support Area:5
;Enable Support Roof:true
;Support Roof Thickness:0.8
;Support Roof Pattern:lines
;Connect Support Lines:0
;Connect Support ZigZags:1
;Minimum Support X/Y Distance:0.2
;Support Line Distance:2
; ---------PrintSpeed & Travel----------
;Enable Print Cool:true
;Avoid Printed Parts Traveling:true
;Enable Retraction:true
;Retraction Distance:5
;Retraction Speed:25
;Retraction Prime Speed:25
;Maximum Retraction Count:100
;Minimum Extrusion Distance Window:2
;Z Hop When Retracted:false
;Z Hop Height:0.2
;Retract Before Outer Wall:true

;Outer Wall Speed:50
;Inner Wall Speed:50
;Infill Speed:50
;Top/Bottom Speed:50
;Travel Speed:120
;Initial Layer Speed:25
;Skirt/Brim Speed:25
;Prime Tower Speed:60
;Outer Wall Acceleration:500
;Inner Wall Acceleration:500
;Infill Acceleration:500
;Top/Bottom Acceleration:500
;Travel Acceleration:500
;Initial Layer Print Acceleration:500
;Initial Layer Travel Acceleration:500
;Skirt/Brim Acceleration:500
;Combing Mode:off
; --------SpecialModel&Mesh Fixes--------
;Union Overlapping Volum:true
;Remove All Holes:false
;Maximum Travel Resolution:0.25
;Maximum Deviation:0.05
;Maximum Model Angle:0.872665
;IS Mold Print:false
;Make Overhang Printable:false
;Enable Coasting:false
;Coasting Volumes:0.064
;Coasting Speed:0.9
;Raft AirGap:0.25
;Layer0 ZOverLap:0.13
;---------------------End of Head--------------------------
M140 S60
M105
M190 S60
M104 S200
M105
M109 S200
M82 ;absolute extrusion mode
M220 S100 ;Reset Feedrate
M221 S100 ;Reset Flowrate

G28 ;Home

G92 E0 ;Reset Extruder
G1 Z2.0 F3000 ;Move Z Axis up
G1 X10.1 Y20 Z0.28 F5000.0 ;Move to start position
G1 X10.1 Y145.0 Z0.28 F1500.0 E15 ;Draw the first line
G1 X10.4 Y145.0 Z0.28 F5000.0 ;Move to side a little
G1 X10.4 Y20 Z0.28 F1500.0 E30 ;Draw the second line
G92 E0  ;Reset Extruder
G1 E-1.0000 F1800 ;Retract a bit
G1 Z2.0 F3000 ;Move Z Axis up
G1 E0.0000 F1800 

G92 E0
G92 E0
G1 F1500 E-5
;LAYER_COUNT:153

;LAYER:-4
M106 S0
M106 P2 S0
M204 S500
G0 F7200 X62.953 Y79.419 Z0.24
M204 S3000
;TYPE:SUPPORT-INTERFACE
G1 F1500 E0
G1 F1200 X62.407 Y80.073 E0.06801
G1 X61.911 Y80.796 E0.138
G1 X61.492 Y81.536 E0.20588
G1 X61.147 Y82.3 E0.27279
G1 X60.874 Y83.081 E0.33883
G1 X60.684 Y83.721 E0.39213
G1 X60.452 Y84.686 E0.47135
G1 X60.332 Y85.563 E0.54201
G1 X60.293 Y86.494 E0.61639
G1 X60.29 Y133.172 E4.34243
G1 X60.279 Y133.641 E4.37988
G1 X60.307 Y134.386 E4.43939
G1 X60.418 Y135.234 E4.50766
G1 X60.587 Y136.016 E4.57152
G1 X60.672 Y136.333 E4.59772
G1 X60.951 Y137.208 E4.67103
G1 X61.286 Y137.992 E4.73909
G1 X61.686 Y138.743 E4.80701
G1 X62.189 Y139.508 E4.88009
G1 X62.619 Y140.097 E4.9383
G1 X63.322 Y140.955 E5.02685
G1 X63.918 Y141.548 E5.09396
G1 X64.584 Y142.102 E5.16311
G1 X65.303 Y142.593 E5.23261
G1 X66.042 Y143.009 E5.30031
G1 X66.827 Y143.363 E5.36904
G1 X67.702 Y143.664 E5.44291
G1 X68.263 Y143.828 E5.48956
G1 X69.192 Y144.049 E5.56579
G1 X70.062 Y144.168 E5.63588
G1 X70.863 Y144.204 E5.69989
G1 X148.839 Y144.214 E11.92427
G1 X149.139 Y144.221 E11.94822
G1 X149.886 Y144.192 E12.0079
G1 X150.734 Y144.082 E12.07615
G1 X151.515 Y143.913 E12.13994
G1 X151.86 Y143.821 E12.16844
G1 X152.713 Y143.547 E12.23996
G1 X153.493 Y143.215 E12.30763
G1 X154.242 Y142.815 E12.37541
G1 X155.008 Y142.311 E12.4486
G1 X155.618 Y141.863 E12.50902
G1 X156.456 Y141.177 E12.59546
G1 X157.047 Y140.581 E12.66246
G1 X157.592 Y139.927 E12.73042
G1 X158.09 Y139.204 E12.8005
G1 X158.509 Y138.461 E12.86859
G1 X158.853 Y137.7 E12.93525
G1 X159.126 Y136.919 E13.00129
G1 X159.318 Y136.274 E13.05501
G1 X159.548 Y135.313 E13.13389
G1 X159.668 Y134.438 E13.20439
G1 X159.707 Y133.506 E13.27885
G1 X159.707 Y86.502 E17.03092
G1 X159.652 Y85.454 E17.11469
G1 X159.624 Y85.204 E17.13477
G1 X159.506 Y84.475 E17.19372
G1 X159.311 Y83.698 E17.25766
G1 X159.153 Y83.169 E17.30173
G1 X158.805 Y82.21 E17.38317
G1 X158.697 Y81.947 E17.40586
G1 X158.377 Y81.291 E17.46413
G1 X157.936 Y80.559 E17.53234
G1 X157.426 Y79.864 E17.60116
G1 X156.86 Y79.22 E17.6696
G1 X156.23 Y78.623 E17.73888
G1 X155.52 Y78.061 E17.81116
G1 X155.015 Y77.696 E17.8609
G1 X154.275 Y77.206 E17.93174
G1 X153.523 Y76.801 E17.99992
G1 X152.834 Y76.505 E18.05978
G1 X152.593 Y76.413 E18.08037
G1 X151.838 Y76.172 E18.14364
G1 X151.574 Y76.102 E18.16544
G1 X150.914 Y75.949 E18.21952
G1 X150.046 Y75.82 E18.28957
G1 X149.196 Y75.773 E18.35752
G1 X148.496 Y75.793 E18.41342
G1 X71.161 Y75.786 E24.58664
G1 X70.861 Y75.779 E24.61059
G1 X70.114 Y75.808 E24.67027
G1 X69.266 Y75.918 E24.73852
G1 X68.485 Y76.087 E24.80231
G1 X68.14 Y76.179 E24.83081
G1 X67.287 Y76.453 E24.90233
G1 X66.507 Y76.785 E24.97
G1 X65.758 Y77.185 E25.03778
G1 X64.992 Y77.689 E25.11097
G1 X64.382 Y78.137 E25.17138
G1 X63.544 Y78.823 E25.25783
G1 X62.953 Y79.419 E25.32483
M204 S500
;;retract;;
G1 F1500 E20.32483
G0 F7200 X61.44 Y136.11
M204 S3000
G1 F1500 E25.32483
G1 F1200 X68.348 Y143.018 E26.10467
G1 X67.949 Y142.903 E26.13781
G1 X67.127 Y142.621 E26.20718
G1 X66.401 Y142.293 E26.27078
G1 X65.726 Y141.913 E26.33261
G1 X65.065 Y141.461 E26.39653
G1 X64.462 Y140.96 E26.45911
G1 X63.908 Y140.409 E26.52148
G1 X63.252 Y139.607 E26.60419
G1 X62.841 Y139.044 E26.65983
G1 X62.377 Y138.339 E26.7272
G1 X62.004 Y137.637 E26.79066
G1 X61.703 Y136.932 E26.85185
G1 X61.437 Y136.1 E26.92157
G1 X61.367 Y135.837 E26.9433
G1 X61.208 Y135.103 E27.00325
G1 X61.105 Y134.318 E27.06645
G1 X61.073 Y133.48 E27.13339
G1 X70.995 Y143.403 E28.25353
G1 X73.258 Y143.403 E28.43417
G1 X61.091 Y131.236 E29.80768
G1 X61.091 Y128.974 E29.98825
G1 X75.521 Y143.403 E31.61717
G1 X77.783 Y143.403 E31.79774
G1 X61.091 Y126.711 E33.68207
G1 X61.091 Y124.448 E33.86272
G1 X80.046 Y143.403 E36.00252
G1 X82.309 Y143.403 E36.18316
G1 X61.091 Y122.185 E38.57843
G1 X61.091 Y119.923 E38.759
G1 X84.572 Y143.404 E41.40973
G1 X86.835 Y143.404 E41.59038
G1 X61.091 Y117.66 E44.49658
G1 X61.091 Y115.397 E44.67722
G1 X89.098 Y143.404 E47.8389
G1 X91.361 Y143.404 E48.01954
G1 X61.091 Y113.134 E51.43668
G1 X61.091 Y110.872 E51.61724
G1 X93.623 Y143.404 E55.28973
G1 X95.886 Y143.404 E55.47038
G1 X61.092 Y108.61 E59.39822
G1 X61.092 Y106.347 E59.57887
G1 X98.149 Y143.404 E63.76218
G1 X100.412 Y143.404 E63.94282
G1 X61.092 Y104.084 E68.3816
G1 X61.092 Y101.821 E68.56225
G1 X102.675 Y143.404 E73.2565
G1 X104.938 Y143.404 E73.43714
G1 X61.092 Y99.559 E78.3868
G1 X61.092 Y97.296 E78.56744
G1 X107.2 Y143.404 E83.77251
G1 X109.463 Y143.404 E83.95315
G1 X61.092 Y95.033 E89.41369
G1 X61.092 Y92.77 E89.59433
G1 X111.727 Y143.405 E95.31045
G1 X113.989 Y143.405 E95.49101
G1 X61.092 Y90.508 E101.46248
G1 X61.092 Y88.245 E101.64312
G1 X116.252 Y143.405 E107.87006
G1 X118.515 Y143.405 E108.0507
G1 X61.113 Y86.003 E114.53074
G1 X61.13 Y85.628 E114.5607
G1 X61.239 Y84.838 E114.62436
G1 X61.426 Y84.053 E114.68877
G1 X120.778 Y143.405 E121.38894
G1 X123.041 Y143.406 E121.56958
G1 X61.996 Y82.36 E128.46093
G1 X62.209 Y81.895 E128.50175
G1 X62.59 Y81.221 E128.56356
G1 X62.804 Y80.906 E128.59396
G1 X125.304 Y143.406 E135.6495
G1 X127.567 Y143.406 E135.83014
G1 X63.829 Y79.669 E143.02538
G1 X64.084 Y79.414 E143.05416
G1 X65.049 Y78.625 E143.15367
G1 X129.829 Y143.406 E150.46665
G1 X132.092 Y143.406 E150.64729
G1 X66.422 Y77.736 E158.06069
G1 X66.851 Y77.508 E158.09947
G1 X67.571 Y77.201 E158.16195
G1 X68.01 Y77.061 E158.19873
G1 X134.355 Y143.406 E165.68833
G1 X136.618 Y143.406 E165.86897
G1 X69.859 Y76.647 E173.4053
G1 X70.182 Y76.606 E173.43129
G1 X70.87 Y76.579 E173.48625
G1 X71.453 Y76.593 E173.5328
G1 X72.066 Y76.592 E173.58174
G1 X138.881 Y143.406 E181.12433
G1 X141.144 Y143.406 E181.30498
G1 X74.329 Y76.592 E188.84758
G1 X76.592 Y76.592 E189.02822
G1 X143.406 Y143.406 E196.57076
G1 X145.669 Y143.406 E196.7514
G1 X78.855 Y76.592 E204.29394
G1 X81.117 Y76.592 E204.47451
G1 X147.932 Y143.406 E212.0171
G1 X148.536 Y143.408 E212.06532
G1 X149.13 Y143.421 E212.11275
G1 X149.818 Y143.394 E212.16771
G1 X150.139 Y143.351 E212.19356
G1 X83.38 Y76.592 E219.72989
G1 X85.643 Y76.592 E219.91053
G1 X151.989 Y142.938 E227.40024
G1 X152.43 Y142.799 E227.43715
G1 X153.149 Y142.492 E227.49956
G1 X153.576 Y142.262 E227.53828
G1 X87.906 Y76.592 E234.95167
G1 X90.168 Y76.592 E235.13224
G1 X154.951 Y141.375 E242.4455
G1 X155.916 Y140.586 E242.545
G1 X156.169 Y140.33 E242.57373
G1 X92.431 Y76.592 E249.76903
G1 X94.694 Y76.592 E249.94967
G1 X157.194 Y139.092 E257.00521
G1 X157.417 Y138.769 E257.03654
G1 X157.795 Y138.099 E257.09795
G1 X158.002 Y137.637 E257.13836
G1 X96.957 Y76.592 E264.02965
G1 X99.219 Y76.591 E264.21021
G1 X158.572 Y135.945 E270.91055
G1 X158.761 Y135.16 E270.975
G1 X158.87 Y134.372 E271.0385
G1 X158.885 Y133.995 E271.06862
G1 X101.481 Y76.591 E277.54888
G1 X103.744 Y76.591 E277.72952
G1 X158.905 Y131.753 E283.95663
G1 X158.905 Y129.49 E284.13727
G1 X106.007 Y76.591 E290.10891
G1 X108.27 Y76.591 E290.28955
G1 X158.905 Y127.227 E296.00572
G1 X158.905 Y124.964 E296.18637
G1 X110.532 Y76.591 E301.64713
G1 X112.795 Y76.591 E301.82777
G1 X158.905 Y122.702 E307.03312
G1 X158.905 Y120.439 E307.21376
G1 X115.058 Y76.591 E312.16365
G1 X117.321 Y76.591 E312.34429
G1 X158.905 Y118.176 E317.03871
G1 X158.905 Y115.913 E317.21935
G1 X119.583 Y76.591 E321.65836
G1 X121.846 Y76.591 E321.839
G1 X158.905 Y113.651 E326.0226
G1 X158.905 Y111.388 E326.20324
G1 X124.108 Y76.59 E330.13148
G1 X126.371 Y76.59 E330.31213
G1 X158.905 Y109.125 E333.9849
G1 X158.905 Y106.862 E334.16554
G1 X128.634 Y76.59 E337.58285
G1 X130.896 Y76.59 E337.76341
G1 X158.905 Y104.6 E340.92537
G1 X158.905 Y102.337 E341.10601
G1 X133.159 Y76.59 E344.0125
G1 X135.422 Y76.59 E344.19314
G1 X158.905 Y100.074 E346.84416
G1 X158.905 Y97.811 E347.0248
G1 X137.685 Y76.59 E349.42036
G1 X139.947 Y76.59 E349.60092
G1 X158.905 Y95.549 E351.74112
G1 X158.905 Y93.286 E351.92176
G1 X142.21 Y76.59 E353.80649
G1 X144.473 Y76.59 E353.98714
G1 X158.905 Y91.023 E355.6164
G1 X158.905 Y88.76 E355.79704
G1 X146.735 Y76.59 E357.1709
G1 X148.608 Y76.59 E357.32041
G1 X148.987 Y76.579 E357.35068
G1 X158.905 Y86.497 E358.47031
G1 X158.848 Y85.414 E358.55688
G1 X158.721 Y84.634 E358.61996
G1 X158.521 Y83.85 E358.68454
G1 X151.61 Y76.939 E359.46472
G1 X152.426 Y77.2 E359.53311
G1 X153.176 Y77.522 E359.59826
G1 X153.854 Y77.888 E359.65976
G1 X154.553 Y78.35 E359.72664
G1 X155.031 Y78.694 E359.77365
G1 X155.709 Y79.231 E359.84269
G1 X156.283 Y79.776 E359.90588
G1 X156.804 Y80.368 E359.96883
G1 X157.268 Y81.001 E360.03148
G1 X157.675 Y81.677 E360.09446
G1 X158.012 Y82.366 E360.15569
M204 S500
;;retract;;
G1 F1500 E355.15569
G0 F600 X158.012 Y82.366 Z0.47
G0 F7200 X158.244 Y138.316
;TIME_ELAPSED:233.922391

;LAYER:-2
M204 S3000
;TYPE:SUPPORT
G1 F1500 E360.15569
G1 X153.908 Y142.652 E360.56614
G1 X154.112 Y142.542 E360.58166
G1 X154.767 Y142.112 E360.6341
G1 X155.328 Y141.709 E360.68034
G1 X156.243 Y140.965 E360.75928
G1 X156.821 Y140.384 E360.81413
G1 X157.356 Y139.739 E360.87023
G1 X157.826 Y139.059 E360.92556
G1 X158.244 Y138.316 E360.98262
G1 X158.582 Y137.564 E361.03781
G1 X158.837 Y136.836 E361.08944
G1 X159.002 Y136.285 E361.12794
G1 X151.73 Y143.557 E361.81632
G1 X150.675 Y143.789 E361.88862
G1 X150.159 Y143.855 E361.92345
G1 X159.331 Y134.683 E362.79168
G1 X159.369 Y134.406 E362.8104
G1 X159.411 Y133.33 E362.88248
G1 X148.826 Y143.915 E363.88447
G1 X148.542 Y143.908 E363.90349
G1 X147.561 Y143.908 E363.96915
G1 X159.405 Y132.063 E365.09037
G1 X159.405 Y130.79 E365.17558
G1 X146.288 Y143.908 E366.41731
G1 X145.015 Y143.908 E366.50252
G1 X159.405 Y129.517 E367.86475
G1 X159.405 Y128.245 E367.94989
G1 X143.742 Y143.908 E369.43258
G1 X142.469 Y143.908 E369.51779
G1 X159.405 Y126.972 E371.12098
G1 X159.405 Y125.699 E371.20619
G1 X141.197 Y143.908 E372.92984
G1 X139.924 Y143.908 E373.01505
G1 X159.405 Y124.426 E374.85921
G1 X159.405 Y123.153 E374.94442
G1 X138.651 Y143.908 E376.90908
G1 X137.379 Y143.907 E376.99422
G1 X159.405 Y121.881 E379.07924
G1 X159.405 Y120.608 E379.16445
G1 X136.106 Y143.907 E381.36998
G1 X134.833 Y143.907 E381.45518
G1 X159.405 Y119.335 E383.78122
G1 X159.405 Y118.062 E383.86642
G1 X133.561 Y143.907 E386.31291
G1 X132.288 Y143.907 E386.39812
G1 X159.405 Y116.789 E388.96511
G1 X159.405 Y115.517 E389.05026
G1 X131.015 Y143.907 E391.73771
G1 X129.742 Y143.907 E391.82292
G1 X159.405 Y114.244 E394.63087
G1 X159.405 Y112.971 E394.71608
G1 X128.469 Y143.907 E397.64454
G1 X127.197 Y143.907 E397.72968
G1 X159.405 Y111.698 E400.7786
G1 X159.405 Y110.426 E400.86374
G1 X125.925 Y143.906 E404.03302
G1 X124.652 Y143.906 E404.11823
G1 X159.405 Y109.153 E407.40801
G1 X159.405 Y107.88 E407.49322
G1 X123.379 Y143.906 E410.90351
G1 X122.106 Y143.906 E410.98871
G1 X159.405 Y106.607 E414.51951
G1 X159.405 Y105.334 E414.60472
G1 X120.833 Y143.906 E418.25601
G1 X119.561 Y143.906 E418.34115
G1 X159.405 Y104.062 E422.11286
G1 X159.405 Y102.789 E422.19807
G1 X118.288 Y143.906 E426.09028
G1 X117.015 Y143.906 E426.17549
G1 X159.405 Y101.516 E430.1882
G1 X159.405 Y100.243 E430.27341
G1 X115.742 Y143.906 E434.40663
G1 X114.47 Y143.906 E434.49178
G1 X159.405 Y98.97 E438.74545
G1 X159.405 Y97.698 E438.8306
G1 X113.197 Y143.906 E443.20473
G1 X111.925 Y143.906 E443.28987
G1 X159.405 Y96.425 E447.78446
G1 X159.405 Y95.152 E447.86967
G1 X110.652 Y143.906 E452.48477
G1 X109.379 Y143.906 E452.56998
G1 X159.405 Y93.879 E457.30558
G1 X159.405 Y92.606 E457.39079
G1 X108.106 Y143.906 E462.24689
G1 X106.833 Y143.906 E462.3321
G1 X159.405 Y91.334 E467.30866
G1 X159.405 Y90.061 E467.39387
G1 X105.561 Y143.906 E472.49089
G1 X104.288 Y143.906 E472.5761
G1 X159.405 Y88.788 E477.79362
G1 X159.405 Y87.515 E477.87883
G1 X103.016 Y143.905 E483.21677
G1 X101.743 Y143.905 E483.30198
G1 X159.392 Y86.256 E488.75914
G1 X159.347 Y85.375 E488.81818
G1 X159.298 Y85.077 E488.8384
G1 X100.47 Y143.905 E494.40717
G1 X99.197 Y143.905 E494.49237
G1 X159.092 Y84.011 E500.1621
G1 X158.796 Y83.034 E500.23043
G1 X97.925 Y143.905 E505.99259
G1 X96.652 Y143.905 E506.0778
G1 X158.442 Y82.114 E511.927
G1 X158.026 Y81.258 E511.99071
G1 X95.379 Y143.905 E517.92099
G1 X94.106 Y143.905 E518.0062
G1 X157.516 Y80.495 E524.0087
G1 X157.195 Y80.055 E524.04516
G1 X156.955 Y79.783 E524.06944
G1 X92.834 Y143.904 E530.13925
G1 X91.561 Y143.904 E530.22446
G1 X156.334 Y79.132 E536.35594
G1 X156.036 Y78.85 E536.38341
G1 X155.649 Y78.544 E536.41643
