;FLAVOR:Marlin
;TIME:7141.14
;Filament used:6.80926m
;Layer height: 0.15
;MINX:60.262
;MINY:75.764
;MINZ:0.24
;MAXX:159.717
;MAXY:144.234
;MAXZ:20.84
                                  
;Creality Print GCode Generated by CXEngine
;CRSLICE_GIT_HASH:3ff0ab3
;Creality Print Version : V4.3.5.5791
;CXEngine Release Time:2023-06-13 21:35:22
;Gcode Generated Time:2023-07-24 12:33:42
;----------Machine Config--------------
;Machine Name:Creality Ender-3
;Machine Height:250
;Machine Width:220
;Machine Depth:220
;Material name:Ender-PLA_1.75
;Number of Extruders:1
;ExtruderParams[0] Nozzle Diameter:1000
;----------Profile Config---------------
;Layer Height:0.15
;Wall Thickness:1.2
;Top/Bottom Thickness:0.84
;Out Wall Line Width:0.4
;Inner Wall Line Width:0.4
;Inital Layer Height:150
;Wall Line Count:3
;Infill Line Distance:8
;Infill Pattern:grid
;Infill Sparse Density:10
;Infill Wipe Distance:0
;Print Temperature:200
;Bed Temperature:60
;Support Enable:false
;Support Density:20
;Support Angle:51
;Adhesion Type:simpleraft
;machine is belt:false
;machine belt offset:10
;machine belt offset Y:0
;Raft Base Line Spacing:1.6
;Wait Heatup Sync:true
;Enable Ironing:false
;Material Type:PLA
;Max volumetric speed:10
;----------Shell Config----------------
;Outer Wall Wipe Distance:200
;Outer Inset First:false
;Infill Before Walls:false
;Infill Overlap:0.16
;Fill Gaps Between Walls:everywhere
;Minimum Infill Area:15
;Top Surface Skin Layer:0
;Top Layers:6
;Z Seam Alignment:sharpest_corner
;Seam Corner Preference:z_seam_corner_weighted
;Z Seam X:110
;Z Seam Y:220
;Horizontal Expansion:0
;Top/Bottom Pattern:zigzag
;Ironing Pattern:zigzag
;Vase Model:false
;----------Support Config----------------
;Support Type:everywhere
;Support Pattern:zigzag
;Support Infill Layer Thickness:0.15
;Minimum Support Area:5
;Enable Support Roof:true
;Support Roof Thickness:0.8
;Support Roof Pattern:lines
;Connect Support Lines:0
;Connect Support ZigZags:1
;Minimum Support X/Y Distance:0.2
;Support Line Distance:2
; ---------PrintSpeed & Travel----------
;Enable Print Cool:true
;Avoid Printed Parts Traveling:true
;Enable Retraction:true
;Retraction Distance:5
;Retraction Speed:25
;Retraction Prime Speed:25
;Maximum Retraction Count:100
;Minimum Extrusion Distance Window:2
;Z Hop When Retracted:false
;Z Hop Height:0.2
;Retract Before Outer Wall:true

;Outer Wall Speed:50
;Inner Wall Speed:50
;Infill Speed:50
;Top/Bottom Speed:50
;Travel Speed:120
;Initial Layer Speed:25
;Skirt/Brim Speed:25
;Prime Tower Speed:60
;Outer Wall Acceleration:500
;Inner Wall Acceleration:500
;Infill Acceleration:500
;Top/Bottom Acceleration:500
;Travel Acceleration:500
;Initial Layer Print Acceleration:500
;Initial Layer Travel Acceleration:500
;Skirt/Brim Acceleration:500
;Combing Mode:off
; --------SpecialModel&Mesh Fixes--------
;Union Overlapping Volum:true
;Remove All Holes:false
;Maximum Travel Resolution:0.25
;Maximum Deviation:0.05
;Maximum Model Angle:0.872665
;IS Mold Print:false
;Make Overhang Printable:false
;Enable Coasting:false
;Coasting Volumes:0.064
;Coasting Speed:0.9
;Raft AirGap:0.25
;Layer0 ZOverLap:0.13
;---------------------End of Head--------------------------
M140 S60
M105
M190 S60
M104 S200
M105
M109 S200
M82 ;absolute extrusion mode
M220 S100 ;Reset Feedrate
M221 S100 ;Reset Flowrate

G28 ;Home

G92 E0 ;Reset Extruder
G1 Z2.0 F3000 ;Move Z Axis up
G1 X10.1 Y20 Z0.28 F5000.0 ;Move to start position
G1 X10.1 Y145.0 Z0.28 F1500.0 E15 ;Draw the first line
G1 X10.4 Y145.0 Z0.28 F5000.0 ;Move to side a little
G1 X10.4 Y20 Z0.28 F1500.0 E30 ;Draw the second line
G92 E0  ;Reset Extruder
G1 E-1.0000 F1800 ;Retract a bit
G1 Z2.0 F3000 ;Move Z Axis up
G1 E0.0000 F1800 

G92 E0
G92 E0
G1 F1500 E-5
;LAYER_COUNT:133

;LAYER:-4
M106 S0
M106 P2 S0
M204 S500
G0 F7200 X63.203 Y79.995 Z0.24
M204 S3000
;TYPE:SUPPORT-INTERFACE
G1 F1500 E0
G1 F1200 X62.61 Y80.621 E0.06883
G1 X62.068 Y81.305 E0.13849
G1 X61.602 Y82.017 E0.20642
G1 X61.205 Y82.763 E0.27388
G1 X60.898 Y83.481 E0.33621
G1 X60.603 Y84.373 E0.41121
G1 X60.431 Y85.131 E0.47325
G1 X60.3 Y86.056 E0.54782
G1 X60.262 Y87 E0.62324
G1 X60.262 Y87.205 E0.6396
G1 X60.293 Y121.674 E3.39107
G1 X60.269 Y126.114 E3.7455
G1 X60.269 Y132.137 E4.22628
G1 X60.318 Y133.077 E4.30141
G1 X60.446 Y133.927 E4.37003
G1 X60.647 Y134.758 E4.43828
G1 X60.883 Y135.452 E4.49679
G1 X60.974 Y135.695 E4.5175
G1 X61.327 Y136.461 E4.58483
G1 X61.687 Y137.109 E4.644
G1 X62.169 Y137.823 E4.71277
G1 X62.716 Y138.493 E4.78181
G1 X63.308 Y139.097 E4.84932
G1 X64.345 Y139.983 E4.9582
G1 X64.82 Y140.501 E5.0143
G1 X64.993 Y140.717 E5.03639
G1 X65.501 Y141.295 E5.09781
G1 X66.122 Y141.883 E5.16608
G1 X66.796 Y142.418 E5.23477
G1 X67.513 Y142.887 E5.30316
G1 X68.255 Y143.286 E5.37041
G1 X69.052 Y143.626 E5.43958
G1 X69.879 Y143.893 E5.50895
G1 X70.631 Y144.064 E5.57051
G1 X71.554 Y144.195 E5.64493
G1 X72.492 Y144.234 E5.71987
G1 X148.962 Y144.207 E11.82403
G1 X149.668 Y144.184 E11.88042
G1 X150.507 Y144.086 E11.94785
G1 X151.437 Y143.893 E12.02367
G1 X151.784 Y143.801 E12.05232
G1 X152.719 Y143.505 E12.13061
G1 X152.981 Y143.412 E12.1528
G1 X153.628 Y143.141 E12.20879
G1 X154.394 Y142.744 E12.27766
G1 X155.12 Y142.284 E12.34627
G1 X155.812 Y141.752 E12.41595
G1 X156.413 Y141.199 E12.48114
G1 X156.725 Y140.887 E12.51636
G1 X157.009 Y140.587 E12.54934
G1 X157.616 Y139.852 E12.62543
G1 X158.096 Y139.143 E12.69377
G1 X158.518 Y138.38 E12.76337
G1 X158.831 Y137.673 E12.82509
G1 X158.942 Y137.394 E12.84906
G1 X159.211 Y136.605 E12.9156
G1 X159.369 Y136.016 E12.96428
G1 X159.537 Y135.281 E13.02447
G1 X159.668 Y134.361 E13.09865
G1 X159.707 Y133.425 E13.17343
G1 X159.707 Y86.822 E16.89348
G1 X159.717 Y86.297 E16.93539
G1 X159.684 Y85.542 E16.99572
G1 X159.57 Y84.719 E17.06204
G1 X159.383 Y83.876 E17.13097
G1 X159.288 Y83.54 E17.15884
G1 X159.029 Y82.744 E17.22566
G1 X158.704 Y81.982 E17.29179
G1 X158.293 Y81.219 E17.36097
G1 X157.843 Y80.535 E17.42632
G1 X157.398 Y79.917 E17.48711
G1 X157.059 Y79.481 E17.5312
G1 X156.542 Y78.892 E17.59376
G1 X155.922 Y78.301 E17.66213
G1 X155.247 Y77.765 E17.73094
G1 X154.537 Y77.298 E17.79877
G1 X153.783 Y76.892 E17.86713
G1 X153.103 Y76.601 E17.92617
G1 X152.854 Y76.51 E17.94733
G1 X152.114 Y76.271 E18.00941
G1 X151.601 Y76.131 E18.05186
G1 X150.862 Y75.962 E18.11237
G1 X149.945 Y75.832 E18.1863
G1 X149.01 Y75.793 E18.261
G1 X135.899 Y75.791 E19.30758
G1 X133.247 Y75.767 E19.51928
G1 X130.425 Y75.772 E19.74455
G1 X129.655 Y75.81 E19.80608
G1 X129.225 Y75.861 E19.84065
G1 X128.458 Y75.912 E19.90201
G1 X127.747 Y75.862 E19.95891
G1 X127.273 Y75.807 E19.997
G1 X126.481 Y75.77 E20.06029
G1 X124.806 Y75.766 E20.19399
G1 X122.993 Y75.792 E20.33873
G1 X72.57 Y75.764 E24.36371
G1 X71.631 Y75.801 E24.43872
G1 X70.788 Y75.916 E24.50664
G1 X69.95 Y76.104 E24.57519
G1 X69.108 Y76.376 E24.64583
G1 X68.326 Y76.709 E24.71367
G1 X67.577 Y77.111 E24.78153
G1 X66.947 Y77.524 E24.84166
G1 X66.735 Y77.678 E24.86258
G1 X65.973 Y78.135 E24.9335
G1 X65.261 Y78.485 E24.99683
G1 X64.537 Y78.923 E25.06438
G1 X63.844 Y79.432 E25.13302
G1 X63.203 Y79.995 E25.20112
M204 S500
;;retract;;
G1 F1500 E20.20112
G0 F7200 X86.696 Y106.229
M204 S3000
G1 F1500 E25.20112
G1 F1200 X86.934 Y105.616 E25.25361
G1 X87.256 Y105.02 E25.30768
G1 X87.647 Y104.473 E25.36136
G1 X88.114 Y103.969 E25.4162
G1 X88.627 Y103.539 E25.46964
G1 X89.215 Y103.159 E25.52552
G1 X89.833 Y102.867 E25.58008
G1 X90.487 Y102.652 E25.63504
G1 X91.135 Y102.526 E25.68773
G1 X91.812 Y102.481 E25.74189
G1 X121.412 Y102.482 E28.10469
G1 X122.346 Y102.568 E28.17956
G1 X123.019 Y102.735 E28.23491
G1 X123.637 Y102.975 E28.28783
G1 X124.241 Y103.301 E28.34262
G1 X124.787 Y103.692 E28.39623
G1 X125.287 Y104.154 E28.45057
G1 X125.732 Y104.687 E28.506
G1 X126.096 Y105.252 E28.55965
G1 X126.395 Y105.884 E28.61546
G1 X126.609 Y106.538 E28.67039
G1 X126.734 Y107.186 E28.72307
G1 X126.778 Y107.852 E28.77634
G1 X126.78 Y118.348 E29.61418
G1 X126.698 Y119.276 E29.68855
G1 X126.521 Y119.985 E29.74688
G1 X126.287 Y120.589 E29.79858
G1 X125.961 Y121.193 E29.85337
G1 X125.565 Y121.747 E29.90773
G1 X125.1 Y122.248 E29.96229
G1 X124.59 Y122.675 E30.01539
G1 X124.002 Y123.055 E30.07127
G1 X123.384 Y123.347 E30.12584
G1 X122.73 Y123.562 E30.18079
G1 X122.064 Y123.69 E30.23493
G1 X121.405 Y123.733 E30.28764
G1 X91.801 Y123.732 E32.65076
G1 X90.876 Y123.649 E32.7249
G1 X90.206 Y123.482 E32.78001
G1 X89.569 Y123.236 E32.83452
G1 X88.971 Y122.912 E32.88881
G1 X88.417 Y122.515 E32.94322
G1 X87.936 Y122.07 E32.99552
G1 X87.478 Y121.522 E33.05253
G1 X87.111 Y120.953 E33.10658
G1 X86.827 Y120.354 E33.1595
G1 X86.606 Y119.682 E33.21597
G1 X86.478 Y119.016 E33.2701
G1 X86.435 Y118.36 E33.32258
G1 X86.438 Y107.846 E34.16185
G1 X86.521 Y106.925 E34.23567
G1 X86.696 Y106.229 E34.29296
M204 S500
;;retract;;
G1 F1500 E29.29296
G0 F7200 X88.863 Y102.439
M204 S3000
G1 F1500 E34.29296
G1 F1200 X65.624 Y79.2 E36.91638
G1 X66.376 Y78.826 E36.98342
G1 X67.087 Y78.401 E37.04954
G1 X90.495 Y101.809 E39.69204
G1 X89.533 Y102.123 E39.77282
G1 X88.828 Y102.458 E39.83512
G1 X88.178 Y102.872 E39.89664
G1 X87.558 Y103.397 E39.96149
G1 X64.277 Y80.116 E42.58965
G1 X63.753 Y80.577 E42.64536
G1 X63.132 Y81.234 E42.71753
G1 X86.547 Y104.649 E45.36081
G1 X86.208 Y105.278 E45.41785
G1 X85.845 Y106.209 E45.49762
G1 X62.211 Y82.575 E48.16563
G1 X61.928 Y83.107 E48.21373
G1 X61.649 Y83.761 E48.27048
G1 X61.52 Y84.147 E48.30297
G1 X85.636 Y108.264 E51.02545
G1 X85.636 Y110.527 E51.20609
G1 X61.103 Y85.993 E53.97565
G1 X61.062 Y87.026 E54.05817
G1 X61.062 Y88.215 E54.15308
G1 X85.636 Y112.789 E56.92721
G1 X85.636 Y115.051 E57.10777
G1 X61.065 Y90.48 E59.88156
G1 X61.067 Y92.745 E60.06236
G1 X85.636 Y117.314 E62.83592
G1 X85.636 Y118.402 E62.92277
G1 X85.684 Y119.119 E62.98013
G1 X85.805 Y119.747 E63.03118
G1 X61.068 Y95.009 E65.82376
G1 X61.07 Y97.274 E66.00457
G1 X107.217 Y143.421 E71.21404
G1 X104.955 Y143.421 E71.3946
G1 X61.072 Y99.539 E76.34844
G1 X61.074 Y101.804 E76.52924
G1 X102.693 Y143.422 E81.2275
G1 X100.431 Y143.423 E81.40806
G1 X61.077 Y104.069 E85.85068
G1 X61.078 Y106.333 E86.0314
G1 X98.169 Y143.423 E90.2185
G1 X95.907 Y143.424 E90.39906
G1 X61.08 Y108.598 E94.33058
G1 X61.082 Y110.863 E94.51138
G1 X93.644 Y143.425 E98.18726
G1 X91.382 Y143.426 E98.36782
G1 X61.084 Y113.127 E101.78818
G1 X61.086 Y115.392 E101.96898
G1 X89.12 Y143.426 E105.1337
G1 X86.859 Y143.428 E105.31418
G1 X61.089 Y117.657 E108.22338
G1 X61.09 Y119.921 E108.4041
G1 X84.597 Y143.428 E111.05777
G1 X82.335 Y143.429 E111.23834
G1 X61.089 Y122.183 E113.63677
G1 X61.077 Y124.434 E113.81646
G1 X80.073 Y143.43 E115.96089
G1 X77.811 Y143.43 E116.14145
G1 X61.069 Y126.688 E118.03143
G1 X61.069 Y128.951 E118.21208
G1 X75.549 Y143.431 E119.8467
G1 X73.287 Y143.432 E120.02727
G1 X61.069 Y131.214 E121.40654
G1 X61.069 Y132.127 E121.47942
G1 X61.114 Y132.995 E121.5488
G1 X61.232 Y133.772 E121.61153
G1 X61.417 Y134.535 E121.6742
G1 X61.709 Y135.378 E121.74542
G1 X61.996 Y136.018 E121.80141
G1 X62.372 Y136.695 E121.86322
G1 X62.814 Y137.35 E121.9263
G1 X63.309 Y137.954 E121.98864
G1 X63.856 Y138.513 E122.05107
G1 X64.211 Y138.809 E122.08796
G1 X64.218 Y138.822 E122.08914
G1 X64.938 Y139.442 E122.16499
G1 X65.429 Y139.982 E122.22325
G1 X65.613 Y140.21 E122.24664
G1 X66.077 Y140.739 E122.3028
G1 X66.642 Y141.275 E122.36497
G1 X67.261 Y141.766 E122.42804
G1 X67.93 Y142.203 E122.49183
G1 X68.592 Y142.559 E122.55183
G1 X69.333 Y142.876 E122.61616
G1 X70.096 Y143.122 E122.68015
G1 X70.895 Y143.303 E122.74555
G1 X61.207 Y133.615 E123.83921
M204 S500
;;retract;;
G1 F1500 E118.83921
G0 F7200 X92.854 Y124.532
M204 S3000
G1 F1500 E123.83921
G1 F1200 X111.741 Y143.419 E125.97134
G1 X109.479 Y143.42 E126.15191
G1 X90.414 Y124.356 E128.30407
G1 X90.765 Y124.443 E128.33294
G1 X91.829 Y124.533 E128.41817
G1 X95.117 Y124.532 E128.68064
G1 X114.002 Y143.418 E130.81259
G1 X116.264 Y143.417 E130.99316
G1 X97.379 Y124.532 E133.12506
G1 X99.642 Y124.532 E133.3057
G1 X118.526 Y143.416 E135.43749
G1 X120.788 Y143.416 E135.61805
G1 X101.905 Y124.532 E137.74979
G1 X104.168 Y124.532 E137.93043
G1 X123.05 Y143.415 E140.06205
G1 X125.312 Y143.414 E140.24261
G1 X106.43 Y124.532 E142.37417
G1 X108.692 Y124.532 E142.55474
G1 X127.574 Y143.413 E144.68624
G1 X129.836 Y143.413 E144.86681
G1 X110.955 Y124.532 E146.99826
G1 X113.218 Y124.532 E147.1789
G1 X132.098 Y143.412 E149.31024
G1 X134.36 Y143.411 E149.4908
G1 X115.481 Y124.532 E151.62202
G1 X117.743 Y124.532 E151.80259
G1 X136.622 Y143.41 E153.93375
G1 X138.884 Y143.409 E154.11432
G1 X120.006 Y124.532 E156.24537
G1 X121.447 Y124.532 E156.3604
G1 X122.219 Y124.481 E156.42216
G1 X141.146 Y143.409 E158.55886
G1 X143.408 Y143.408 E158.73942
G1 X123.959 Y123.959 E160.93499
G1 X124.392 Y123.754 E160.97323
G1 X125.039 Y123.342 E161.03446
G1 X125.346 Y123.083 E161.06652
G1 X145.67 Y143.407 E163.36087
G1 X147.932 Y143.406 E163.54144
G1 X126.432 Y121.906 E165.96854
G1 X126.64 Y121.617 E165.99696
G1 X126.998 Y120.957 E166.0569
G1 X127.208 Y120.42 E166.10293
G1 X150.115 Y143.327 E168.68887
G1 X150.373 Y143.297 E168.7096
G1 X151.258 Y143.113 E168.78176
G1 X151.552 Y143.035 E168.80604
G1 X151.957 Y142.906 E168.83996
G1 X127.58 Y118.529 E171.59185
G1 X127.578 Y116.264 E171.77265
G1 X153.578 Y142.264 E174.70776
G1 X153.994 Y142.051 E174.74506
G1 X154.662 Y141.628 E174.80818
G1 X154.968 Y141.391 E174.83907
G1 X127.577 Y114.001 E177.93115
G1 X127.576 Y111.737 E178.11187
G1 X156.158 Y140.319 E181.33846
G1 X156.414 Y140.051 E181.36804
G1 X156.977 Y139.369 E181.43863
G1 X157.176 Y139.074 E181.46704
G1 X127.576 Y109.474 E184.80854
G1 X127.577 Y107.81 E184.94137
G1 X127.532 Y107.167 E184.99282
G1 X157.981 Y137.616 E188.43017
G1 X158.089 Y137.372 E188.45147
G1 X158.192 Y137.114 E188.47365
G1 X158.449 Y136.359 E188.53731
G1 X158.562 Y135.934 E188.57241
G1 X99.206 Y76.578 E195.27303
G1 X101.47 Y76.58 E195.45375
G1 X158.881 Y133.991 E201.9348
G1 X158.907 Y133.399 E201.9821
G1 X158.905 Y131.753 E202.1135
G1 X103.734 Y76.581 E208.34173
G1 X105.998 Y76.583 E208.52245
G1 X158.905 Y129.49 E214.49505
G1 X158.905 Y127.227 E214.6757
G1 X108.262 Y76.584 E220.39271
G1 X110.526 Y76.585 E220.57344
G1 X158.905 Y124.964 E226.03488
G1 X158.905 Y122.702 E226.21544
G1 X112.79 Y76.586 E231.42136
G1 X115.054 Y76.588 E231.60208
G1 X158.905 Y120.439 E236.55236
G1 X158.905 Y118.176 E236.733
G1 X117.318 Y76.589 E241.4277
G1 X119.583 Y76.59 E241.6085
G1 X158.905 Y115.913 E246.04757
G1 X158.905 Y113.651 E246.22813
G1 X121.847 Y76.592 E250.41161
G1 X123.002 Y76.592 E250.50381
G1 X124.094 Y76.576 E250.59099
G1 X158.905 Y111.388 E254.52081
G1 X158.905 Y109.125 E254.70145
G1 X126.35 Y76.569 E258.3766
G1 X127.22 Y76.606 E258.44611
G1 X127.603 Y76.654 E258.47692
G1 X128.399 Y76.712 E258.54063
G1 X128.734 Y76.691 E258.56742
G1 X158.905 Y106.862 E261.97339
G1 X158.905 Y104.6 E262.15395
G1 X130.876 Y76.571 E265.3181
G1 X133.136 Y76.567 E265.49851
G1 X158.905 Y102.337 E268.40759
G1 X158.905 Y100.074 E268.58823
G1 X135.418 Y76.587 E271.23965
G1 X137.687 Y76.593 E271.42077
G1 X158.905 Y97.811 E273.81604
G1 X158.905 Y95.549 E273.9966
G1 X139.949 Y76.593 E276.13652
G1 X142.212 Y76.593 E276.31716
G1 X158.905 Y93.286 E278.20161
G1 X158.905 Y91.023 E278.38226
G1 X144.475 Y76.593 E280.01124
G1 X146.738 Y76.593 E280.19188
G1 X158.905 Y88.76 E281.5654
G1 X158.907 Y86.808 E281.72122
G1 X158.917 Y86.312 E281.76082
G1 X158.886 Y85.608 E281.81707
G1 X158.783 Y84.867 E281.87679
G1 X158.569 Y83.898 E281.956
G1 X151.641 Y76.971 E282.73804
G1 X151.398 Y76.905 E282.75814
G1 X150.711 Y76.749 E282.81437
G1 X149.875 Y76.63 E282.88178
G1 X149.002 Y76.594 E282.95152
G1 X158.913 Y86.505 E284.07036
M204 S500
;;retract;;
G1 F1500 E279.07036
G0 F7200 X119.783 Y101.681
M204 S3000
G1 F1500 E284.07036
G1 F1200 X94.678 Y76.576 E286.90443
G1 X96.942 Y76.577 E287.08515
G1 X122.106 Y101.741 E289.92588
G1 X121.429 Y101.681 E289.98014
G1 X117.52 Y101.681 E290.29217
G1 X92.414 Y76.575 E293.12635
G1 X90.15 Y76.574 E293.30707
G1 X115.257 Y101.681 E296.14137
G1 X112.994 Y101.681 E296.32201
G1 X87.886 Y76.572 E299.15648
G1 X85.622 Y76.571 E299.3372
