;FLAVOR:Marlin
;TIME:7854.23
;Filament used:7.50825m
;Layer height: 0.15
;MINX:60.263
;MINY:75.765
;MINZ:0.24
;MAXX:159.721
;MAXY:144.239
;MAXZ:23.84
                                  
;Creality Print GCode Generated by CXEngine
;CRSLICE_GIT_HASH:3ff0ab3
;Creality Print Version : V4.3.5.5791
;CXEngine Release Time:2023-06-13 21:35:22
;Gcode Generated Time:2023-07-25 22:28:32
;----------Machine Config--------------
;Machine Name:Creality Ender-3
;Machine Height:250
;Machine Width:220
;Machine Depth:220
;Material name:Ender-PLA_1.75
;Number of Extruders:1
;ExtruderParams[0] Nozzle Diameter:1000
;----------Profile Config---------------
;Layer Height:0.15
;Wall Thickness:1.2
;Top/Bottom Thickness:0.84
;Out Wall Line Width:0.4
;Inner Wall Line Width:0.4
;Inital Layer Height:150
;Wall Line Count:3
;Infill Line Distance:8
;Infill Pattern:grid
;Infill Sparse Density:10
;Infill Wipe Distance:0
;Print Temperature:200
;Bed Temperature:60
;Support Enable:false
;Support Density:20
;Support Angle:51
;Adhesion Type:simpleraft
;machine is belt:false
;machine belt offset:10
;machine belt offset Y:0
;Raft Base Line Spacing:1.6
;Wait Heatup Sync:true
;Enable Ironing:false
;Material Type:PLA
;Max volumetric speed:10
;----------Shell Config----------------
;Outer Wall Wipe Distance:200
;Outer Inset First:false
;Infill Before Walls:false
;Infill Overlap:0.16
;Fill Gaps Between Walls:everywhere
;Minimum Infill Area:15
;Top Surface Skin Layer:0
;Top Layers:6
;Z Seam Alignment:sharpest_corner
;Seam Corner Preference:z_seam_corner_weighted
;Z Seam X:110
;Z Seam Y:220
;Horizontal Expansion:0
;Top/Bottom Pattern:zigzag
;Ironing Pattern:zigzag
;Vase Model:false
;----------Support Config----------------
;Support Type:everywhere
;Support Pattern:zigzag
;Support Infill Layer Thickness:0.15
;Minimum Support Area:5
;Enable Support Roof:true
;Support Roof Thickness:0.8
;Support Roof Pattern:lines
;Connect Support Lines:0
;Connect Support ZigZags:1
;Minimum Support X/Y Distance:0.2
;Support Line Distance:2
; ---------PrintSpeed & Travel----------
;Enable Print Cool:true
;Avoid Printed Parts Traveling:true
;Enable Retraction:true
;Retraction Distance:5
;Retraction Speed:25
;Retraction Prime Speed:25
;Maximum Retraction Count:100
;Minimum Extrusion Distance Window:2
;Z Hop When Retracted:false
;Z Hop Height:0.2
;Retract Before Outer Wall:true

;Outer Wall Speed:50
;Inner Wall Speed:50
;Infill Speed:50
;Top/Bottom Speed:50
;Travel Speed:120
;Initial Layer Speed:25
;Skirt/Brim Speed:25
;Prime Tower Speed:60
;Outer Wall Acceleration:500
;Inner Wall Acceleration:500
;Infill Acceleration:500
;Top/Bottom Acceleration:500
;Travel Acceleration:500
;Initial Layer Print Acceleration:500
;Initial Layer Travel Acceleration:500
;Skirt/Brim Acceleration:500
;Combing Mode:off
; --------SpecialModel&Mesh Fixes--------
;Union Overlapping Volum:true
;Remove All Holes:false
;Maximum Travel Resolution:0.25
;Maximum Deviation:0.05
;Maximum Model Angle:0.872665
;IS Mold Print:false
;Make Overhang Printable:false
;Enable Coasting:false
;Coasting Volumes:0.064
;Coasting Speed:0.9
;Raft AirGap:0.25
;Layer0 ZOverLap:0.13
;---------------------End of Head--------------------------
M140 S60
M105
M190 S60
M104 S200
M105
M109 S200
M82 ;absolute extrusion mode
M220 S100 ;Reset Feedrate
M221 S100 ;Reset Flowrate

G28 ;Home

G92 E0 ;Reset Extruder
G1 Z2.0 F3000 ;Move Z Axis up
G1 X10.1 Y20 Z0.28 F5000.0 ;Move to start position
G1 X10.1 Y145.0 Z0.28 F1500.0 E15 ;Draw the first line
G1 X10.4 Y145.0 Z0.28 F5000.0 ;Move to side a little
G1 X10.4 Y20 Z0.28 F1500.0 E30 ;Draw the second line
G92 E0  ;Reset Extruder
G1 E-1.0000 F1800 ;Retract a bit
G1 Z2.0 F3000 ;Move Z Axis up
G1 E0.0000 F1800 

G92 E0
G92 E0
G1 F1500 E-5
;LAYER_COUNT:153

;LAYER:-4
M106 S0
M106 P2 S0
M204 S500
G0 F7200 X63.205 Y81.033 Z0.24
M204 S3000
;TYPE:SUPPORT-INTERFACE
G1 F1500 E0
G1 F1200 X62.612 Y81.657 E0.06872
G1 X62.069 Y82.343 E0.13855
G1 X61.602 Y83.057 E0.20666
G1 X61.2 Y83.815 E0.27515
G1 X60.867 Y84.603 E0.34343
G1 X60.603 Y85.419 E0.41189
G1 X60.42 Y86.234 E0.47857
G1 X60.302 Y87.099 E0.54826
G1 X60.265 Y88.039 E0.62335
G1 X60.263 Y131.116 E4.06194
G1 X60.27 Y131.42 E4.08622
G1 X60.347 Y132.327 E4.15888
G1 X60.508 Y133.216 E4.231
G1 X60.729 Y134.011 E4.29686
G1 X61.028 Y134.811 E4.36504
G1 X61.411 Y135.607 E4.43555
G1 X61.849 Y136.34 E4.50371
G1 X62.358 Y137.04 E4.5728
G1 X62.922 Y137.687 E4.64131
G1 X63.548 Y138.284 E4.71036
G1 X64.126 Y138.746 E4.76943
G1 X64.609 Y139.106 E4.81752
G1 X65.123 Y139.58 E4.87333
G1 X65.566 Y140.109 E4.92841
G1 X65.98 Y140.672 E4.98419
G1 X66.537 Y141.303 E5.05138
G1 X67.155 Y141.889 E5.11936
G1 X67.849 Y142.439 E5.19004
G1 X68.559 Y142.9 E5.25762
G1 X69.31 Y143.301 E5.32558
G1 X70.09 Y143.632 E5.39321
G1 X70.933 Y143.904 E5.46392
G1 X71.667 Y144.069 E5.52398
G1 X72.602 Y144.202 E5.59936
G1 X73.548 Y144.239 E5.67493
G1 X148.962 Y144.207 E11.69481
G1 X149.668 Y144.184 E11.75119
G1 X150.507 Y144.086 E11.81862
G1 X151.44 Y143.893 E11.89467
G1 X151.802 Y143.797 E11.92457
G1 X152.719 Y143.506 E12.00136
G1 X152.981 Y143.412 E12.02358
G1 X153.628 Y143.141 E12.07958
G1 X154.394 Y142.744 E12.14845
G1 X155.12 Y142.284 E12.21705
G1 X155.812 Y141.752 E12.28673
G1 X156.413 Y141.199 E12.35192
G1 X156.725 Y140.887 E12.38714
G1 X157.009 Y140.587 E12.42012
G1 X157.616 Y139.852 E12.49621
G1 X158.096 Y139.143 E12.56456
G1 X158.518 Y138.38 E12.63416
G1 X158.831 Y137.673 E12.69588
G1 X158.942 Y137.394 E12.71985
G1 X159.211 Y136.605 E12.78639
G1 X159.369 Y136.016 E12.83507
G1 X159.537 Y135.281 E12.89525
G1 X159.668 Y134.361 E12.96943
G1 X159.707 Y133.425 E13.04421
G1 X159.709 Y86.878 E16.75979
G1 X159.721 Y86.359 E16.80123
G1 X159.692 Y85.609 E16.86115
G1 X159.582 Y84.768 E16.92885
G1 X159.412 Y83.982 E16.99304
G1 X159.343 Y83.714 E17.01513
G1 X159.047 Y82.783 E17.09311
G1 X158.718 Y82.015 E17.15981
G1 X158.311 Y81.252 E17.22884
G1 X157.811 Y80.492 E17.30146
G1 X157.374 Y79.896 E17.36045
G1 X156.677 Y79.044 E17.44832
G1 X156.082 Y78.452 E17.51532
G1 X155.418 Y77.9 E17.58424
G1 X154.702 Y77.41 E17.6535
G1 X153.958 Y76.991 E17.72166
G1 X153.173 Y76.637 E17.7904
G1 X152.298 Y76.336 E17.86426
G1 X151.769 Y76.18 E17.90829
G1 X150.817 Y75.953 E17.98641
G1 X149.937 Y75.832 E18.05732
G1 X149.004 Y75.794 E18.13186
G1 X135.926 Y75.791 E19.1758
G1 X134.284 Y75.774 E19.30688
G1 X131.445 Y75.766 E19.5335
G1 X131.095 Y75.774 E19.56144
G1 X130.175 Y75.855 E19.63517
G1 X129.488 Y75.984 E19.69096
G1 X128.692 Y76.071 E19.75488
G1 X127.998 Y76.052 E19.8103
G1 X127.325 Y75.949 E19.86465
G1 X127.207 Y75.92 E19.87435
G1 X126.313 Y75.799 E19.94636
G1 X125.393 Y75.765 E20.01985
G1 X123.997 Y75.773 E20.13129
G1 X116.41 Y75.773 E20.73692
G1 X113.139 Y75.792 E20.99802
G1 X73.424 Y75.775 E24.16825
G1 X72.428 Y75.831 E24.24788
G1 X71.589 Y75.964 E24.31569
G1 X70.755 Y76.171 E24.38428
G1 X69.931 Y76.46 E24.45398
G1 X69.155 Y76.81 E24.52194
G1 X68.419 Y77.226 E24.58942
G1 X67.687 Y77.73 E24.66037
G1 X67.119 Y78.203 E24.71937
G1 X66.627 Y78.658 E24.77286
G1 X66.073 Y79.077 E24.82831
G1 X65.484 Y79.413 E24.88244
G1 X65.175 Y79.575 E24.91029
G1 X64.533 Y79.963 E24.97017
G1 X63.844 Y80.47 E25.03845
G1 X63.205 Y81.033 E25.10643
M204 S500
;;retract;;
G1 F1500 E20.10643
G0 F7200 X86.688 Y106.253
M204 S3000
G1 F1500 E25.10643
G1 F1200 X86.934 Y105.616 E25.16094
G1 X87.256 Y105.02 E25.21502
G1 X87.658 Y104.46 E25.27004
G1 X88.114 Y103.969 E25.32353
G1 X88.627 Y103.539 E25.37696
G1 X89.215 Y103.159 E25.43285
G1 X89.833 Y102.867 E25.48741
G1 X90.487 Y102.652 E25.54236
G1 X91.135 Y102.526 E25.59506
G1 X91.812 Y102.481 E25.64922
G1 X121.412 Y102.482 E28.01202
G1 X122.334 Y102.566 E28.08592
G1 X122.999 Y102.728 E28.14056
G1 X123.64 Y102.976 E28.19542
G1 X124.262 Y103.315 E28.25197
G1 X124.781 Y103.688 E28.30299
G1 X125.287 Y104.154 E28.3579
G1 X125.744 Y104.703 E28.41492
G1 X126.096 Y105.252 E28.46697
G1 X126.395 Y105.884 E28.52278
G1 X126.6 Y106.506 E28.57506
G1 X126.734 Y107.186 E28.63039
G1 X126.779 Y107.877 E28.68566
G1 X126.781 Y118.329 E29.51999
G1 X126.696 Y119.29 E29.597
G1 X126.521 Y119.985 E29.65421
G1 X126.287 Y120.589 E29.70591
G1 X125.961 Y121.193 E29.7607
G1 X125.565 Y121.747 E29.81506
G1 X125.1 Y122.248 E29.86962
G1 X124.59 Y122.675 E29.92272
G1 X124.002 Y123.055 E29.9786
G1 X123.384 Y123.347 E30.03316
G1 X122.73 Y123.562 E30.08812
G1 X122.064 Y123.69 E30.14225
G1 X121.405 Y123.733 E30.19497
G1 X91.801 Y123.732 E32.55809
G1 X90.876 Y123.649 E32.63222
G1 X90.206 Y123.482 E32.68734
G1 X89.569 Y123.236 E32.74185
G1 X88.971 Y122.912 E32.79614
G1 X88.417 Y122.515 E32.85054
G1 X87.936 Y122.07 E32.90285
G1 X87.464 Y121.502 E32.9618
G1 X87.122 Y120.972 E33.01215
G1 X86.82 Y120.336 E33.06835
G1 X86.606 Y119.682 E33.12328
G1 X86.48 Y119.035 E33.1759
G1 X86.435 Y118.36 E33.2299
G1 X86.438 Y107.846 E34.06917
G1 X86.521 Y106.924 E34.14307
G1 X86.688 Y106.253 E34.19827
M204 S500
;;retract;;
G1 F1500 E29.19827
G0 F7200 X95.117 Y124.532
M204 S3000
G1 F1500 E34.19827
G1 F1200 X114.005 Y143.421 E36.33056
G1 X111.744 Y143.422 E36.51105
G1 X92.854 Y124.532 E38.64351
G1 X97.379 Y124.532 E39.00472
G1 X116.267 Y143.42 E41.13696
G1 X118.529 Y143.419 E41.31752
G1 X99.642 Y124.532 E43.44965
G1 X101.905 Y124.532 E43.63029
G1 X120.79 Y143.418 E45.76225
G1 X123.052 Y143.417 E45.94281
G1 X104.168 Y124.532 E48.07466
G1 X106.43 Y124.532 E48.25522
G1 X125.314 Y143.416 E50.38701
G1 X127.576 Y143.415 E50.56757
G1 X108.692 Y124.532 E52.6993
G1 X110.955 Y124.532 E52.87995
G1 X129.838 Y143.414 E55.01157
G1 X132.1 Y143.413 E55.19213
G1 X113.218 Y124.532 E57.32364
G1 X115.481 Y124.532 E57.50428
G1 X134.361 Y143.412 E59.63562
G1 X136.623 Y143.411 E59.81618
G1 X117.743 Y124.532 E61.94746
G1 X120.006 Y124.532 E62.1281
G1 X138.885 Y143.411 E64.25933
G1 X141.146 Y143.409 E64.43981
G1 X122.212 Y124.474 E66.5773
G1 X122.93 Y124.337 E66.63565
G1 X123.684 Y124.091 E66.69896
G1 X123.96 Y123.96 E66.72335
G1 X143.409 Y143.409 E68.91892
G1 X145.67 Y143.407 E69.0994
G1 X125.346 Y123.083 E71.39375
G1 X125.651 Y122.829 E71.42543
G1 X126.186 Y122.252 E71.48824
G1 X126.432 Y121.906 E71.52213
G1 X147.932 Y143.406 E73.94924
G1 X148.943 Y143.407 E74.02994
G1 X149.616 Y143.385 E74.08369
G1 X150.114 Y143.326 E74.12372
G1 X127.231 Y120.442 E76.70701
G1 X127.484 Y119.43 E76.79028
G1 X127.567 Y118.516 E76.86354
G1 X151.958 Y142.907 E79.617
G1 X152.597 Y142.706 E79.67047
G1 X153.29 Y142.415 E79.73047
G1 X153.578 Y142.264 E79.75643
G1 X127.579 Y116.265 E82.69142
G1 X127.579 Y114.002 E82.87206
G1 X154.968 Y141.391 E85.96397
G1 X155.298 Y141.139 E85.99711
G1 X155.855 Y140.625 E86.05761
G1 X156.158 Y140.319 E86.09199
G1 X127.578 Y111.739 E89.31835
G1 X127.578 Y109.476 E89.49899
G1 X157.176 Y139.074 E92.84027
G1 X157.414 Y138.725 E92.87399
G1 X157.8 Y138.025 E92.9378
G1 X157.981 Y137.616 E92.9735
G1 X127.548 Y107.183 E96.40904
G1 X127.387 Y106.349 E96.47684
G1 X127.143 Y105.598 E96.53987
G1 X126.811 Y104.886 E96.60258
G1 X126.384 Y104.218 E96.66587
G1 X125.89 Y103.627 E96.72736
G1 X125.311 Y103.087 E96.79056
G1 X124.674 Y102.625 E96.85337
G1 X123.969 Y102.247 E96.91723
G1 X123.23 Y101.962 E96.98045
G1 X122.459 Y101.772 E97.04384
G1 X122.105 Y101.74 E97.07221
G1 X96.949 Y76.585 E99.91198
G1 X99.214 Y76.586 E100.09278
G1 X158.567 Y135.939 E106.79306
G1 X158.75 Y135.13 E106.85927
G1 X158.87 Y134.29 E106.927
G1 X158.881 Y133.991 E106.95089
G1 X101.477 Y76.587 E113.43115
G1 X103.741 Y76.588 E113.61187
G1 X158.906 Y131.753 E119.83937
G1 X158.906 Y129.491 E120.01993
G1 X106.005 Y76.589 E125.99191
G1 X108.268 Y76.59 E126.17255
G1 X158.906 Y127.228 E131.88901
G1 X158.906 Y124.965 E132.06965
G1 X110.532 Y76.591 E137.53053
G1 X112.796 Y76.592 E137.71125
G1 X158.906 Y122.702 E142.91654
G1 X158.906 Y120.44 E143.09711
G1 X115.048 Y76.581 E148.04823
G1 X117.302 Y76.573 E148.22816
G1 X158.906 Y118.177 E152.92478
G1 X158.906 Y115.914 E153.10542
G1 X119.565 Y76.573 E157.54657
G1 X121.828 Y76.573 E157.72721
G1 X158.906 Y113.651 E161.9129
G1 X158.906 Y111.389 E162.09346
G1 X124.09 Y76.572 E166.02385
G1 X125.374 Y76.565 E166.12635
G1 X126.383 Y76.603 E166.20695
G1 X158.907 Y109.127 E169.87854
G1 X158.907 Y106.864 E170.05918
G1 X128.897 Y76.854 E173.44697
G1 X129.622 Y76.773 E173.5052
G1 X130.285 Y76.648 E173.55906
G1 X130.9 Y76.594 E173.60834
G1 X158.907 Y104.601 E176.77001
G1 X158.907 Y102.338 E176.95065
G1 X133.139 Y76.571 E179.85951
G1 X135.418 Y76.586 E180.04143
G1 X158.907 Y100.076 E182.69313
G1 X158.907 Y97.813 E182.87377
G1 X137.687 Y76.593 E185.26927
G1 X139.95 Y76.593 E185.44991
G1 X158.907 Y95.55 E187.58994
G1 X158.907 Y93.287 E187.77058
G1 X142.213 Y76.593 E189.65515
G1 X144.476 Y76.593 E189.83579
G1 X158.907 Y91.025 E191.46494
G1 X158.907 Y88.762 E191.64558
G1 X146.738 Y76.593 E193.01933
G1 X149.002 Y76.595 E193.20005
G1 X158.927 Y86.519 E194.32041
G1 X158.894 Y85.678 E194.3876
G1 X158.792 Y84.899 E194.45031
G1 X158.604 Y84.026 E194.52159
G1 X158.291 Y83.05 E194.60341
G1 X157.998 Y82.365 E194.66288
G1 X157.626 Y81.666 E194.72609
G1 X157.159 Y80.956 E194.79393
G1 X156.736 Y80.378 E194.8511
G1 X156.09 Y79.59 E194.93244
G1 X155.551 Y79.052 E194.99323
G1 X154.938 Y78.541 E195.05693
G1 X154.273 Y78.086 E195.12125
G1 X153.595 Y77.705 E195.18333
G1 X152.878 Y77.381 E195.24614
G1 X152.063 Y77.101 E195.31493
G1 X151.65 Y76.979 E195.3493
G1 X158.559 Y83.889 E196.12931
M204 S500
;;retract;;
G1 F1500 E191.12931
G0 F7200 X117.52 Y101.681
M204 S3000
G1 F1500 E196.12931
G1 F1200 X92.422 Y76.583 E198.96259
G1 X94.686 Y76.584 E199.14331
G1 X119.783 Y101.681 E201.97647
G1 X115.257 Y101.681 E202.33776
G1 X90.158 Y76.582 E205.17115
G1 X87.895 Y76.581 E205.35179
G1 X112.994 Y101.681 E208.18524
G1 X110.732 Y101.681 E208.36581
G1 X85.631 Y76.58 E211.19942
G1 X83.367 Y76.579 E211.38015
G1 X108.469 Y101.681 E214.21388
G1 X106.206 Y101.681 E214.39452
G1 X81.103 Y76.578 E217.22836
G1 X78.84 Y76.577 E217.409
G1 X103.943 Y101.681 E220.2429
G1 X101.681 Y101.681 E220.42347
G1 X76.576 Y76.576 E223.25754
G1 X74.312 Y76.575 E223.43826
G1 X99.418 Y101.681 E226.27244
G1 X97.155 Y101.681 E226.45308
G1 X72.158 Y76.683 E229.27502
G1 X71.75 Y76.748 E229.308
G1 X70.986 Y76.938 E229.37084
G1 X70.367 Y77.155 E229.4232
G1 X94.893 Y101.681 E232.19191
G1 X92.63 Y101.681 E232.37255
G1 X68.85 Y77.901 E235.05704
G1 X68.177 Y78.364 E235.12225
G1 X67.565 Y78.879 E235.1861
G1 X90.495 Y101.809 E237.77463
G1 X89.533 Y102.123 E237.85541
G1 X88.863 Y102.439 E237.91454
G1 X66.294 Y79.87 E240.46233
G1 X65.892 Y80.102 E240.49938
G1 X65.565 Y80.275 E240.52891
G1 X64.861 Y80.7 E240.59455
G1 X87.556 Y103.395 E243.15656
G1 X87.017 Y103.98 E243.22005
G1 X86.542 Y104.644 E243.28522
G1 X63.636 Y81.738 E245.87105
G1 X63.22 Y82.178 E245.91938
G1 X62.599 Y82.964 E245.99935
G1 X85.868 Y106.232 E248.6261
G1 X85.733 Y106.784 E248.67146
G1 X85.637 Y107.872 E248.75864
G1 X85.636 Y108.264 E248.78993
G1 X61.806 Y84.433 E251.48013
G1 X61.62 Y84.876 E251.51848
G1 X61.375 Y85.632 E251.58192
G1 X61.258 Y86.148 E251.62415
G1 X85.636 Y110.527 E254.37621
G1 X85.636 Y112.789 E254.55677
G1 X61.064 Y88.217 E257.33067
G1 X61.064 Y90.479 E257.51123
G1 X85.636 Y115.051 E260.28513
G1 X85.636 Y117.314 E260.46578
G1 X61.064 Y92.742 E263.23967
G1 X61.064 Y95.005 E263.42032
G1 X85.778 Y119.719 E266.21025
G1 X86.076 Y120.632 E266.28691
G1 X86.407 Y121.333 E266.34879
G1 X86.826 Y121.991 E266.41106
G1 X87.336 Y122.601 E266.47453
G1 X87.912 Y123.136 E266.53728
G1 X88.545 Y123.59 E266.59946
G1 X89.231 Y123.965 E266.66187
G1 X89.964 Y124.245 E266.72451
G1 X90.415 Y124.356 E266.76158
G1 X109.482 Y143.423 E268.91403
G1 X107.22 Y143.423 E269.09459
G1 X61.063 Y97.267 E274.30514
G1 X61.063 Y99.53 E274.48578
G1 X104.958 Y143.425 E279.44103
G1 X102.696 Y143.426 E279.62159
G1 X61.063 Y101.792 E284.32154
G1 X61.062 Y104.055 E284.50218
G1 X100.434 Y143.426 E288.94677
G1 X98.173 Y143.428 E289.12726
G1 X61.062 Y106.317 E293.31667
G1 X61.062 Y108.58 E293.49731
G1 X95.911 Y143.428 E297.43131
G1 X93.649 Y143.43 E297.61187
G1 X61.062 Y110.842 E301.29063
G1 X61.062 Y113.105 E301.47127
G1 X91.387 Y143.43 E304.89462
G1 X89.125 Y143.431 E305.07518
G1 X61.062 Y115.368 E308.24318
